images/map-pin.svg

<svg fill="none" height="24" viewBox="0 0 18 24" width="18" xmlns="http://www.w3.org/2000/svg"><path clip-rule="evenodd" d="m8.68966 0c-4.66296 0-8.68966 4.03191-8.68966 8.8421 0 2.8602.754653 4.0764 4.16259 9.5689l.00012.0002c.75222 1.2123 1.63371 2.633 2.66488 4.3256 1.14378 1.6168 3.20201 1.6151 4.34481 0 1.0313-1.6928 1.9128-3.1135 2.665-4.3259l.0001-.0001c3.4098-5.4956 4.1625-6.7088 4.1625-9.5687 0-4.81539-4.0319-8.8421-9.31034-8.8421zm-2.47666 17.225-.00003-.0001c-3.23408-5.0612-3.73021-5.8376-3.73021-7.75122 0-3.91305 3.05681-6.94736 6.82758-6.94736 3.77076 0 6.82756 3.03431 6.82756 6.94736 0 1.90852-.4556 2.62202-3.7228 7.73792-.8372 1.3109-1.8589 2.9107-3.10476 4.8937-1.24142-1.9759-2.26094-3.5714-3.09734-4.8803zm2.47666-12.17237c-2.0568 0-3.72414 1.6966-3.72414 3.78947 0 2.0929 1.66734 3.7895 3.72414 3.7895 2.05684 0 3.72414-1.6966 3.72414-3.7895 0-2.09287-1.6673-3.78947-3.72414-3.78947z" fill="#feb803" fill-rule="evenodd"/></svg>

<svg width="18" height="24" viewBox="0 0 18 24" fill="none" xmlns="http://www.w3.org/2000/svg">
<path fill-rule="evenodd" clip-rule="evenodd" d="M8.68966 0C4.0267 0 0 4.03191 0 8.8421C0 11.7023 0.754653 12.9185 4.16259 18.411L4.16271 18.4112C4.91493 19.6235 5.79642 21.0442 6.82759 22.7368C7.97137 24.3536 10.0296 24.3519 11.1724 22.7368C12.2037 21.044 13.0852 19.6233 13.8374 18.4109L13.8375 18.4108C17.2473 12.9152 18 11.702 18 8.8421C18 4.02671 13.9681 0 8.68966 0ZM6.213 17.225L6.21297 17.2249C2.97889 12.1637 2.48276 11.3873 2.48276 9.47368C2.48276 5.56063 5.53957 2.52632 9.31034 2.52632C13.0811 2.52632 16.1379 5.56063 16.1379 9.47368C16.1379 11.3822 15.6823 12.0957 12.4151 17.2116C11.5779 18.5225 10.5562 20.1223 9.31034 22.1053C8.06892 20.1294 7.0494 18.5339 6.213 17.225ZM8.68966 5.05263C6.63286 5.05263 4.96552 6.74923 4.96552 8.8421C4.96552 10.935 6.63286 12.6316 8.68966 12.6316C10.7465 12.6316 12.4138 10.935 12.4138 8.8421C12.4138 6.74923 10.7465 5.05263 8.68966 5.05263Z" fill="#FEB803"/>
</svg>
